X:14
T:Mrs. Crowley's
S:Denis Brooks
R:polka
E:8
I:speed 450
M:2/4
K:G
GE|D2G2 {EF}E2GE|D2G2 {EF}E2GE|D2G2 {AB}A2GA|B2A2 A2GE|D2G2 {EF}E2GE|D2G2 {EF}E2GE|D2G2 {AB}A2GA|B2G2 G2:|
Bc|d2B2 g2B2|d2B2 g2B2|d2B2 g2B2|B2A2 A2Bc|d2B2 g2B2|d2B2 g2B2|G2B2 {AB}A2GA|B2G2 G2:|
